dist/img/icons/logo-f.svg

<svg width="13" height="17" viewBox="0 0 13 17" fill="none" xmlns="http://www.w3.org/2000/svg">
<path fill-rule="evenodd" clip-rule="evenodd" d="M1.21745 0C0.987329 0 0.800781 0.186548 0.800781 0.416666V2.91667C0.800781 3.14679 0.987329 3.33333 1.21745 3.33333H11.3088C11.5 3.33333 11.6666 3.20321 11.713 3.01772L12.338 0.517723C12.4038 0.254745 12.2049 0 11.9338 0H1.21745ZM3.71745 16.6667H1.21745C0.987329 16.6667 0.800781 16.4801 0.800781 16.25V7.08333C0.800781 6.85321 0.987329 6.66667 1.21745 6.66667H10.2671C10.5382 6.66667 10.7371 6.92141 10.6714 7.18439L10.0464 9.68439C9.99998 9.86988 9.83332 10 9.64212 10H4.55078C4.32066 10 4.13411 10.1865 4.13411 10.4167V16.25C4.13411 16.4801 3.94757 16.6667 3.71745 16.6667Z" fill="#F3F2F7"/>
</svg>

<svg width="13" height="17" viewBox="0 0 13 17" fill="none" xmlns="http://www.w3.org/2000/svg"><path fill-rule="evenodd" clip-rule="evenodd" d="M1.217 0a.417.417 0 00-.416.417v2.5c0 .23.186.416.416.416H11.31c.191 0 .358-.13.404-.315l.625-2.5A.417.417 0 0011.934 0H1.217zm2.5 16.667h-2.5a.417.417 0 01-.416-.417V7.083c0-.23.186-.416.416-.416h9.05c.271 0 .47.254.404.517l-.625 2.5a.417.417 0 01-.404.316H4.551a.417.417 0 00-.417.417v5.833c0 .23-.186.417-.417.417z" fill="#F3F2F7"/></svg>
